public/images/s3.svg

<svg width="92" height="92" viewBox="0 0 92 92" fill="none" xmlns="http://www.w3.org/2000/svg">
<path d="M72.2945 58.1743L68.2793 51.6145M74.0834 48.2288L78.0037 54.6336M73.296 7.2396C75.8018 9.1354 78.0019 11.5227 79.7414 14.3648C87.198 26.5473 83.3668 42.4679 71.1843 49.9245C64.7361 53.8712 57.2405 54.6556 50.5072 52.713M40.5857 47.2797C38.6915 45.6105 37.0117 43.6333 35.6248 41.3672C28.1682 29.1847 31.9994 13.2641 44.1819 5.80752C51.7959 1.14724 60.8701 0.89617 68.4255 4.33737M70.8855 50.1022V46.7124C70.8855 41.6045 67.9848 37.1742 63.7408 34.9788M51.6255 34.9788C47.3815 37.1742 44.4809 41.6047 44.4809 46.7124V47.5159M55.8357 41.928L53.7625 49.9344C53.7163 50.1127 53.7239 50.3006 53.7841 50.4746L54.8569 53.5732M60.5093 53.573L61.5842 50.4688C61.6432 50.2984 61.6517 50.1146 61.6087 49.9395L59.6392 41.9383M60.5528 37.1213V40.3334C60.5528 41.366 59.7157 42.203 58.6832 42.203H56.8096C55.7769 42.203 54.94 41.3658 54.94 40.3334V37.1213M66.361 19.1245V28.7679C66.361 33.5606 62.4757 37.4459 57.683 37.4459C52.8903 37.4459 49.005 33.5606 49.005 28.7679V24.2013M27.51 59.7247C27.5894 59.2647 27.6306 58.7916 27.6306 58.3087V41.1914C27.6306 34.3276 22.0663 28.7633 15.2025 28.7633C8.33865 28.7633 2.77429 34.3276 2.77429 41.1914V58.3087C2.77429 58.7724 2.81236 59.2275 2.88566 59.6705M9.12852 71.6673H5.53752C3.58382 71.6673 2 70.0835 2 68.1298V64.8067C2 59.6254 4.98474 55.1411 9.32878 52.9797M21.0751 52.9793C25.4195 55.1405 28.4046 59.6252 28.4046 64.8067V68.1298C28.4046 70.0835 26.8207 71.6673 24.867 71.6673H15.2023M9.99453 54.0599L9.97098 60.2024C9.96815 61.2113 11.1074 61.8007 11.9293 61.2156L14.4836 59.3969C14.9138 59.0906 15.4911 59.0906 15.9213 59.3969L18.4756 61.2156C19.2975 61.8007 20.4368 61.2113 20.4339 60.2024L20.4104 54.0599M48.5174 71.4064C52.7607 73.6019 55.661 78.032 55.661 83.1394V86.4625C55.661 88.4162 54.0771 90 52.1234 90H32.7939C30.8402 90 29.2564 88.4162 29.2564 86.4625V83.1394C29.2564 78.0318 32.1567 73.6017 36.4003 71.4062M40.5482 78.3543L38.4748 86.3612C38.4286 86.5395 38.4362 86.7274 38.4964 86.9014L39.5692 90H45.2216L46.2965 86.8957C46.3555 86.7254 46.364 86.5416 46.3209 86.3665L44.3515 78.3653M45.2651 73.5483V76.7604C45.2651 77.793 44.428 78.63 43.3955 78.63H41.5218C40.4892 78.63 39.6523 77.7928 39.6523 76.7604V73.5483M51.1367 60.6284V65.195C51.1367 69.9877 47.2514 73.873 42.4587 73.873C37.666 73.873 33.7807 69.9877 33.7807 65.195V60.6284M49.0052 24.3613H57.8849C63.1181 24.3613 67.3603 20.1189 67.3603 14.8858C67.3603 12.6579 65.5541 10.8517 63.3262 10.8517H57.9392C53.0052 10.8517 49.0052 14.8515 49.0052 19.7857V24.3613ZM87.371 76.3917C84.7808 77.9771 81.3959 77.1625 79.8105 74.5724L72.7416 63.0037C71.1562 60.4135 71.9709 57.0286 74.5609 55.4431C77.1512 53.8577 80.5361 54.6724 82.1215 57.2625L89.1903 68.8312C90.7757 71.4214 89.9611 74.8063 87.371 76.3917ZM15.2023 39.2459C14.3249 40.4534 12.9024 41.2391 11.2956 41.2391H9.16269C8.24675 41.2391 7.50415 41.9817 7.50415 42.8976V48.0048C7.50415 52.2564 10.9508 55.7031 15.2025 55.7031C19.4541 55.7031 22.9008 52.2564 22.9008 48.0048V42.8976C22.9008 41.9817 22.1582 41.2391 21.2422 41.2391H19.1093C17.5023 41.2391 16.0798 40.4534 15.2023 39.2459ZM33.7807 60.7883L35.6154 57.8237C36.5347 56.3384 38.4518 55.8256 39.9899 56.6541C41.4207 57.2343 43.4966 57.2343 44.9276 56.6541C46.4656 55.8256 48.3828 56.3384 49.3021 57.8237L51.1369 60.7883V55.9564C51.1369 51.1637 47.2516 47.2785 42.4589 47.2785C37.6661 47.2785 33.7809 51.1637 33.7809 55.9564V60.7883H33.7807Z" stroke="#001489" stroke-width="2.5" stroke-miterlimit="10" stroke-linecap="round" stroke-linejoin="round"/>
</svg>

<svg xmlns="http://www.w3.org/2000/svg" width="92" height="92" fill="none"><path stroke="#001489" stroke-linecap="round" stroke-linejoin="round" stroke-miterlimit="10" stroke-width="2.5" d="m72.295 58.174-4.016-6.56m5.804-3.385 3.92 6.405M73.297 7.24a25.8 25.8 0 0 1 6.445 7.125c7.457 12.182 3.626 28.103-8.557 35.56-6.448 3.946-13.943 4.73-20.677 2.788m-9.921-5.433a25.9 25.9 0 0 1-4.961-5.913c-7.457-12.182-3.626-28.103 8.557-35.56 7.614-4.66 16.688-4.91 24.243-1.47m2.46 45.765v-3.39c0-5.108-2.9-9.538-7.144-11.733m-12.115 0a13.2 13.2 0 0 0-7.145 11.733v.804m11.355-5.588-2.073 8.006a.94.94 0 0 0 .021.54l1.073 3.1m5.652-.001 1.075-3.104a.94.94 0 0 0 .025-.53l-1.97-8m.914-4.818v3.212a1.87 1.87 0 0 1-1.87 1.87H56.81a1.87 1.87 0 0 1-1.87-1.87v-3.212m11.421-17.996v9.643a8.678 8.678 0 0 1-17.356 0V24.2M27.51 59.725q.12-.69.12-1.416V41.19c0-6.863-5.564-12.428-12.427-12.428-6.864 0-12.429 5.565-12.429 12.428V58.31q0 .696.112 1.361m6.243 11.997H5.538A3.54 3.54 0 0 1 2 68.13v-3.323c0-5.182 2.985-9.666 7.329-11.827m11.746 0c4.345 2.16 7.33 6.645 7.33 11.827v3.323a3.54 3.54 0 0 1-3.538 3.537h-9.665M9.995 54.06l-.024 6.142a1.24 1.24 0 0 0 1.958 1.014l2.555-1.82a1.24 1.24 0 0 1 1.437 0l2.555 1.82a1.24 1.24 0 0 0 1.958-1.014l-.024-6.142m28.107 17.346a13.2 13.2 0 0 1 7.144 11.733v3.324A3.54 3.54 0 0 1 52.123 90h-19.33a3.54 3.54 0 0 1-3.537-3.537v-3.324c0-5.107 2.9-9.537 7.144-11.733m4.148 6.948-2.073 8.007a.94.94 0 0 0 .021.54L39.57 90h5.653l1.075-3.104a.93.93 0 0 0 .024-.53l-1.97-8m.914-4.818v3.212a1.87 1.87 0 0 1-1.87 1.87h-1.873a1.87 1.87 0 0 1-1.87-1.87v-3.212m11.485-12.92v4.567a8.678 8.678 0 0 1-17.356 0v-4.567m15.224-36.267h8.88a9.475 9.475 0 0 0 9.475-9.475 4.034 4.034 0 0 0-4.034-4.034H57.94c-4.934 0-8.934 4-8.934 8.934zm38.366 52.03a5.5 5.5 0 0 1-7.56-1.819l-7.07-11.568a5.499 5.499 0 0 1 9.38-5.741l7.07 11.568a5.5 5.5 0 0 1-1.82 7.56M15.202 39.247a4.82 4.82 0 0 1-3.906 1.993H9.163c-.916 0-1.659.743-1.659 1.659v5.107a7.698 7.698 0 0 0 15.397 0v-5.107c0-.916-.743-1.659-1.659-1.659H19.11a4.82 4.82 0 0 1-3.907-1.993m18.579 21.542 1.834-2.964a3.303 3.303 0 0 1 4.375-1.17c1.43.58 3.507.58 4.938 0a3.303 3.303 0 0 1 4.374 1.17l1.835 2.964v-4.832a8.678 8.678 0 0 0-17.356 0z"/></svg>
